icon-themes/sifr_svg/cmd/lc_insertcellsdown.svg

<svg viewBox="0 0 24 24" xmlns="http://www.w3.org/2000/svg"><g fill="#555753"><path d="m17 1v6.6835938l-2.28125-2.3710938c-.190301-.18267-.338903-.3094816-.71875-.3125h-1v.4121094.5878906c0 .30945.0903.55232.28125.75.769594 1.016078 3.321099 3.524849 3.939453 4.25h1.615235l3.882812-4.25c.19095-.19768.28125-.44055.28125-.75v-.5878906-.4121094h-1c-.256892 0-.528462.12983-.71875.3125l-2.28125 2.3710938v-6.6835938zm-16 1v18h12v1h10v-9h-1v-2.9804688l-2 2.1894528v.791016h-5v-1.886719c-.174351-.1810513-.233714-.2477567-.414062-.4355466-.203873-.2122828-.389577-.4132005-.585938-.6210938v2.9433594h-1v1h-4v-4h4.947266c-.336982-.3576082-.630584-.6846333-.904297-1h-4.042969v-4h7v-2zm19 0v2 1.2519531c.172115-.1938852.409872-.4665997.541016-.6113281l.023437-.0253906.023438-.0234375c.362408-.3479098.818292-.5917969 1.412109-.5917969v-2zm-17 2h5v4h-5zm0 5h5v4h-5zm11 4h8v7h-8zm-11 1h5v4h-5zm6 0h4v4h-4z"/><path d="m22 20v-7h-8v7z" opacity=".35"/></g></svg>

<svg xmlns="http://www.w3.org/2000/svg" viewBox="0 0 24 24">
  <path
     style="fill:#555753"
     d="M 17 1 L 17 7.6835938 L 14.71875 5.3125 C 14.528449 5.12983 14.379847 5.0030184 14 5 L 13 5 L 13 5.4121094 L 13 6 C 13 6.30945 13.0903 6.55232 13.28125 6.75 C 14.050844 7.766078 16.602349 10.274849 17.220703 11 L 18.835938 11 L 22.71875 6.75 C 22.9097 6.55232 23 6.30945 23 6 L 23 5.4121094 L 23 5 L 22 5 C 21.743108 5 21.471538 5.12983 21.28125 5.3125 L 19 7.6835938 L 19 1 L 17 1 z M 1 2 L 1 20 L 13 20 L 13 21 L 23 21 L 23 12 L 22 12 L 22 9.0195312 L 20 11.208984 L 20 12 L 15 12 L 15 10.113281 C 14.825649 9.9322297 14.766286 9.8655243 14.585938 9.6777344 C 14.382065 9.4654516 14.196361 9.2645339 14 9.0566406 L 14 12 L 13 12 L 13 13 L 9 13 L 9 9 L 13.947266 9 C 13.610284 8.6423918 13.316682 8.3153667 13.042969 8 L 9 8 L 9 4 L 16 4 L 16 2 L 1 2 z M 20 2 L 20 4 L 20 5.2519531 C 20.172115 5.0580679 20.409872 4.7853534 20.541016 4.640625 L 20.564453 4.6152344 L 20.587891 4.5917969 C 20.950299 4.2438871 21.406183 4 22 4 L 22 2 L 20 2 z M 3 4 L 8 4 L 8 8 L 3 8 L 3 4 z M 3 9 L 8 9 L 8 13 L 3 13 L 3 9 z M 14 13 L 22 13 L 22 20 L 14 20 L 14 13 z M 3 14 L 8 14 L 8 18 L 3 18 L 3 14 z M 9 14 L 13 14 L 13 18 L 9 18 L 9 14 z "
     />
  <path
     style="opacity:0.35;fill:#555753"
     d="m 22,20 v -7 h -8 v 7 z"
     />
</svg>
